X: 3
T: The Cuil Aodha
R: jig
M: 6/8
L: 1/8
K: Gmaj
|: gfd cAd | GAG B2c | d2B cAG | FDF cBA |
G3 GFG | A3 fga | g/f/ed cAd | GAG GBd :|
|: d2g gfg | ade fga | gfd cAd | cAG FGA |
dgg gfg | ade fga | gfd cAd | GAG G2d :|


Tune 825	Setting 28468

